assets/img/braze_icons/wind-01.svg

<svg fill="none" height="24" viewBox="0 0 24 24" width="24" xmlns="http://www.w3.org/2000/svg"><g clip-rule="evenodd" fill="#801ed7" fill-rule="evenodd"><path d="m12.2192 12.9796c-2.1692.6942-4.63992 1.4849-7.49075.6805-.44277-.1249-.9719-.3102-1.37569-.4579-.20508-.0751-.38396-.1427-.51176-.1916-.06397-.0245-.11533-.0444-.15098-.0583l-.04136-.0162-.01539-.006s-.00018-.0001.35676-.905l-.35676.905c-.51377-.2026-.76617-.7835-.56353-1.2972.20263-.5138.78336-.766 1.29711-.5634l-.3666.9296c.36666-.9296.3666-.9296.3666-.9296l.01162.0046.03697.0144c.03261.0127.08058.0313.14086.0543.1207.0463.29002.1103.48375.1812.39381.1441.86468.3078 1.23149.4113 2.23196.6297 4.17363.0318 6.42376-.688.0284-.0091.0569-.0182.0855-.0273 2.1692-.6942 4.6399-1.48494 7.4907-.6806.4428.1249.972.3102 1.3757.458.2051.075.384.1426.5118.1916.064.0245.1153.0444.151.0583l.0413.0161.0154.006s.0002.0001-.3667.9304l.3667-.9304c.5138.2027.7662.7835.5636 1.2973-.2027.5137-.7834.766-1.2972.5633l-.0116-.0045-.0369-.0144c-.0327-.0127-.0806-.0313-.1409-.0544-.1207-.0462-.29-.1102-.4837-.1811-.3939-.1441-.8647-.3078-1.2315-.4113-2.232-.6298-4.1737-.0319-6.4238.6879-.0284.0091-.0569.0182-.0855.0274z"/><path d="m12.2192 18.9796c-2.1692.6942-4.63992 1.4849-7.49075.6805-.44277-.1249-.9719-.3102-1.37569-.4579-.20508-.0751-.38396-.1427-.51176-.1916-.06397-.0245-.11533-.0444-.15098-.0583l-.04136-.0162-.01539-.006s-.00018-.0001.35676-.905l-.35676.905c-.51377-.2026-.76617-.7835-.56353-1.2972.20263-.5138.78336-.766 1.29711-.5634l-.3666.9296c.36666-.9296.3666-.9296.3666-.9296l.01162.0046.03697.0144c.03261.0127.08058.0313.14086.0544.1207.0462.29002.1102.48375.1811.39381.1441.86468.3078 1.23149.4113 2.23196.6297 4.17363.0318 6.42376-.688.0284-.0091.0569-.0182.0855-.0273 2.1692-.6942 4.6399-1.4849 7.4907-.6806.4428.1249.972.3102 1.3757.458.2051.075.384.1426.5118.1916.064.0245.1153.0444.151.0583l.0413.0161.0154.006s.0002.0001-.3667.9304l.3667-.9304c.5138.2027.7662.7835.5636 1.2973-.2027.5137-.7834.766-1.2972.5633l-.0116-.0045-.0369-.0144c-.0327-.0127-.0806-.0313-.1409-.0544-.1207-.0462-.29-.1102-.4837-.1811-.3939-.1441-.8647-.3078-1.2315-.4113-2.232-.6298-4.1737-.0319-6.4238.6879-.0284.0091-.0569.0182-.0855.0274z"/><path d="m12.2192 6.97957c-2.1692.6942-4.63992 1.48492-7.49075.68057-.44277-.12493-.9719-.3102-1.37569-.45795-.20508-.07505-.38396-.14268-.51176-.19163-.06397-.0245-.11533-.04439-.15098-.05826l-.04136-.01615-.01539-.00605s-.00018-.00007.35676-.90504l-.35676.90504c-.51377-.20264-.76617-.78347-.56353-1.29723.20263-.51375.78336-.76597 1.29711-.56337l-.3666.92962c.36666-.9296.3666-.92962.3666-.92962l.01162.00456.03697.01443c.03261.0127.08058.03127.14086.05436.1207.04623.29002.11025.48375.18113.39381.14411.86468.30781 1.23149.41131 2.23196.62974 4.17363.03183 6.42376-.68797.0284-.00909.0569-.01821.0855-.02734 2.1692-.69421 4.6399-1.48492 7.4907-.68057.4428.12493.972.3102 1.3757.45795.2051.07504.384.14268.5118.19163.064.0245.1153.04439.151.05826l.0413.01615.0154.00605s.0002.00007-.3667.93032l.3667-.93032c.5138.20264.7662.78347.5636 1.29723-.2027.51377-.7834.76599-1.2972.56335l-.0116-.00454-.0369-.01444c-.0327-.01269-.0806-.03127-.1409-.05435-.1207-.04623-.29-.11025-.4837-.18114-.3939-.14411-.8647-.30781-1.2315-.4113-2.232-.62974-4.1737-.03184-6.4238.68797-.0284.00909-.0569.01821-.0855.02734z"/></g></svg>

<svg width="24" height="24" viewBox="0 0 24 24" fill="none" xmlns="http://www.w3.org/2000/svg">
<path fill-rule="evenodd" clip-rule="evenodd" d="M12.2192 12.9796C10.05 13.6738 7.57928 14.4645 4.72845 13.6601C4.28568 13.5352 3.75655 13.3499 3.35276 13.2022C3.14768 13.1271 2.9688 13.0595 2.841 13.0106C2.77703 12.9861 2.72567 12.9662 2.69002 12.9523L2.64866 12.9361L2.63327 12.9301C2.63327 12.9301 2.63309 12.93 2.99003 12.0251L2.63327 12.9301C2.1195 12.7275 1.8671 12.1466 2.06974 11.6329C2.27237 11.1191 2.8531 10.8669 3.36685 11.0695L3.00025 11.9991C3.36691 11.0695 3.36685 11.0695 3.36685 11.0695L3.37847 11.0741L3.41544 11.0885C3.44805 11.1012 3.49602 11.1198 3.5563 11.1428C3.677 11.1891 3.84632 11.2531 4.04005 11.324C4.43386 11.4681 4.90473 11.6318 5.27154 11.7353C7.5035 12.365 9.44517 11.7671 11.6953 11.0473C11.7237 11.0382 11.7522 11.0291 11.7808 11.02C13.95 10.3258 16.4207 9.53506 19.2715 10.3394C19.7143 10.4643 20.2435 10.6496 20.6472 10.7974C20.8523 10.8724 21.0312 10.94 21.159 10.989C21.223 11.0135 21.2743 11.0334 21.31 11.0473L21.3513 11.0634L21.3667 11.0694C21.3667 11.0694 21.3669 11.0695 21 11.9998L21.3667 11.0694C21.8805 11.2721 22.1329 11.8529 21.9303 12.3667C21.7276 12.8804 21.1469 13.1327 20.6331 12.93L20.6215 12.9255L20.5846 12.9111C20.5519 12.8984 20.504 12.8798 20.4437 12.8567C20.323 12.8105 20.1537 12.7465 19.96 12.6756C19.5661 12.5315 19.0953 12.3678 18.7285 12.2643C16.4965 11.6345 14.5548 12.2324 12.3047 12.9522C12.2763 12.9613 12.2478 12.9704 12.2192 12.9796Z" fill="#801ED7"/>
<path fill-rule="evenodd" clip-rule="evenodd" d="M12.2192 18.9796C10.05 19.6738 7.57928 20.4645 4.72845 19.6601C4.28568 19.5352 3.75655 19.3499 3.35276 19.2022C3.14768 19.1271 2.9688 19.0595 2.841 19.0106C2.77703 18.9861 2.72567 18.9662 2.69002 18.9523L2.64866 18.9361L2.63327 18.9301C2.63327 18.9301 2.63309 18.93 2.99003 18.0251L2.63327 18.9301C2.1195 18.7275 1.8671 18.1466 2.06974 17.6329C2.27237 17.1191 2.8531 16.8669 3.36685 17.0695L3.00025 17.9991C3.36691 17.0695 3.36685 17.0695 3.36685 17.0695L3.37847 17.0741L3.41544 17.0885C3.44805 17.1012 3.49602 17.1198 3.5563 17.1429C3.677 17.1891 3.84632 17.2531 4.04005 17.324C4.43386 17.4681 4.90473 17.6318 5.27154 17.7353C7.5035 18.365 9.44517 17.7671 11.6953 17.0473C11.7237 17.0382 11.7522 17.0291 11.7808 17.02C13.95 16.3258 16.4207 15.5351 19.2715 16.3394C19.7143 16.4643 20.2435 16.6496 20.6472 16.7974C20.8523 16.8724 21.0312 16.94 21.159 16.989C21.223 17.0135 21.2743 17.0334 21.31 17.0473L21.3513 17.0634L21.3667 17.0694C21.3667 17.0694 21.3669 17.0695 21 17.9998L21.3667 17.0694C21.8805 17.2721 22.1329 17.8529 21.9303 18.3667C21.7276 18.8804 21.1469 19.1327 20.6331 18.93L20.6215 18.9255L20.5846 18.9111C20.5519 18.8984 20.504 18.8798 20.4437 18.8567C20.323 18.8105 20.1537 18.7465 19.96 18.6756C19.5661 18.5315 19.0953 18.3678 18.7285 18.2643C16.4965 17.6345 14.5548 18.2324 12.3047 18.9522C12.2763 18.9613 12.2478 18.9704 12.2192 18.9796Z" fill="#801ED7"/>
<path fill-rule="evenodd" clip-rule="evenodd" d="M12.2192 6.97957C10.05 7.67377 7.57928 8.46449 4.72845 7.66014C4.28568 7.53521 3.75655 7.34994 3.35276 7.20219C3.14768 7.12714 2.9688 7.05951 2.841 7.01056C2.77703 6.98606 2.72567 6.96617 2.69002 6.9523L2.64866 6.93615L2.63327 6.9301C2.63327 6.9301 2.63309 6.93003 2.99003 6.02506L2.63327 6.9301C2.1195 6.72746 1.8671 6.14663 2.06974 5.63287C2.27237 5.11912 2.8531 4.8669 3.36685 5.0695L3.00025 5.99912C3.36691 5.06952 3.36685 5.0695 3.36685 5.0695L3.37847 5.07406L3.41544 5.08849C3.44805 5.10119 3.49602 5.11976 3.5563 5.14285C3.677 5.18908 3.84632 5.2531 4.04005 5.32398C4.43386 5.46809 4.90473 5.63179 5.27154 5.73529C7.5035 6.36503 9.44517 5.76712 11.6953 5.04732C11.7237 5.03823 11.7522 5.02911 11.7808 5.01998C13.95 4.32577 16.4207 3.53506 19.2715 4.33941C19.7143 4.46434 20.2435 4.64961 20.6472 4.79736C20.8523 4.8724 21.0312 4.94004 21.159 4.98899C21.223 5.01349 21.2743 5.03338 21.31 5.04725L21.3513 5.0634L21.3667 5.06945C21.3667 5.06945 21.3669 5.06952 21 5.99977L21.3667 5.06945C21.8805 5.27209 22.1329 5.85292 21.9303 6.36668C21.7276 6.88045 21.1469 7.13267 20.6331 6.93003L20.6215 6.92549L20.5846 6.91105C20.5519 6.89836 20.504 6.87978 20.4437 6.8567C20.323 6.81047 20.1537 6.74645 19.96 6.67556C19.5661 6.53145 19.0953 6.36775 18.7285 6.26426C16.4965 5.63452 14.5548 6.23242 12.3047 6.95223C12.2763 6.96132 12.2478 6.97044 12.2192 6.97957Z" fill="#801ED7"/>
</svg>
